X: 24572
T: Lurgy, The
R: hornpipe
M: 4/4
K: Gmajor
GDBG dBgf|fee^d e2 AG|FDAF dAfe|ed ^ce d=cBA|
GDBG dBgf|fee^d e2 ef|gage dBge|dBcA G2:|
E^DEF GFGA|B^AB^d e2 fe|dAFE DEFD|E^DEB A^GAF|
E^DEF GFGA|BGBd g2 ag|fecA fecA|dBcA G2:|

